X: 1
T: Haste to the Wedding (J-2; British Isles, New England traditional)
C: J-2
C: British Isles, New England
M: 6/8
Z: Transcribed to abc by Mary Lou Knack
R: jig
K: D
A| "D"AFA Aaf| "A7"ede "Bm"fdB| "D"AFA AdF| "A7"EFE E2 A|
   "D"AFA Aaf| "A7"ede "Bm"fdB| "D"AFA "A7"faf| "D"ded d2 :|
|:\
a| "D"afa afa| "G"bgb bgb| "D"afa agf| "A"gfg efg|
   "D"a3 f3| "G"ede "Bm"fdB| "D"AFA "A"faf| "D"ded d2 :|

